packages/icons/svg/32/Delete.svg

<svg width="32" height="32" viewBox="0 0 32 32" fill="none" xmlns="http://www.w3.org/2000/svg">
<path d="M8 11C8 10.4477 8.44772 10 9 10H23C23.5523 10 24 10.4477 24 11V26C24 26.5523 23.5523 27 23 27H9C8.44772 27 8 26.5523 8 26V11Z" fill="#858585"/>
<path d="M20 5H12V7H8.5C7.94772 7 7.5 7.44772 7.5 8C7.5 8.55228 7.94772 9 8.5 9H23.5C24.0523 9 24.5 8.55228 24.5 8C24.5 7.44772 24.0523 7 23.5 7H20V5Z" fill="#858585"/>
</svg>

<svg width="32" height="32" fill="none" xmlns="http://www.w3.org/2000/svg" viewBox="0 0 32 32"><path d="M8 11a1 1 0 011-1h14a1 1 0 011 1v15a1 1 0 01-1 1H9a1 1 0 01-1-1V11zM20 5h-8v2H8.5a1 1 0 000 2h15a1 1 0 100-2H20V5z" fill="currentColor"></path></svg>
